svg/outline/mastercard.svg

<?xml version="1.0" encoding="UTF-8" standalone="no"?>
<svg
   xmlns:sketch="http://www.bohemiancoding.com/sketch/ns"
   xmlns:dc="http://purl.org/dc/elements/1.1/"
   xmlns:cc="http://creativecommons.org/ns#"
   xmlns:rdf="http://www.w3.org/1999/02/22-rdf-syntax-ns#"
   xmlns:svg="http://www.w3.org/2000/svg"
   xmlns="http://www.w3.org/2000/svg"
   xmlns:sodipodi="http://sodipodi.sourceforge.net/DTD/sodipodi-0.dtd"
   xmlns:inkscape="http://www.inkscape.org/namespaces/inkscape"
   width="780px"
   height="501px"
   viewBox="0 0 780 501"
   version="1.1"
   id="svg2"
   inkscape:version="0.91 r13725"
   sodipodi:docname="mastercard.svg">
  <metadata
     id="metadata45">
    <rdf:RDF>
      <cc:Work
         rdf:about="">
        <dc:format>image/svg+xml</dc:format>
        <dc:type
           rdf:resource="http://purl.org/dc/dcmitype/StillImage" />
      </cc:Work>
    </rdf:RDF>
  </metadata>
  <sodipodi:namedview
     pagecolor="#ffffff"
     bordercolor="#666666"
     borderopacity="1"
     objecttolerance="10"
     gridtolerance="10"
     guidetolerance="10"
     inkscape:pageopacity="0"
     inkscape:pageshadow="2"
     inkscape:window-width="1440"
     inkscape:window-height="851"
     id="namedview43"
     showgrid="false"
     inkscape:zoom="1.0370192"
     inkscape:cx="390"
     inkscape:cy="250.5"
     inkscape:window-x="0"
     inkscape:window-y="300"
     inkscape:window-maximized="1"
     inkscape:current-layer="svg2" />
  <!-- Generator: Sketch 3.3.1 (12005) - http://www.bohemiancoding.com/sketch -->
  <title
     id="title4">jcb copy</title>
  <desc
     id="desc6">Created with Sketch.</desc>
  <defs
     id="defs8" />
  <g
     id="Page-1"
     stroke="none"
     stroke-width="1"
     fill="none"
     fill-rule="evenodd"
     sketch:type="MSPage">
    <rect
       id="Rectangle-1"
       stroke="#393939"
       stroke-width="30"
       sketch:type="MSShapeGroup"
       x="15"
       y="15"
       width="750"
       height="471"
       rx="40" />
    <path
       d="M718.974684,250.480392 C718.974684,362.842604 627.368878,454.285954 514.777214,454.285954 C467.816046,454.285954 424.523861,438.343845 389.986064,411.683982 C355.471113,438.343845 312.179385,454.285954 265.215932,454.285954 C152.62701,454.285954 61.025316,362.842604 61.025316,250.480392 C61.025316,138.114077 152.62701,46.7140456 265.215932,46.7140456 C312.179385,46.7140456 355.471113,62.5964198 389.986064,89.2950419 C424.523861,62.5964198 467.816046,46.7140456 514.777214,46.7140456 C627.368878,46.7140456 718.974684,138.114077 718.974684,250.480392 L718.974684,250.480392 Z M514.483011,64.7140456 C473.064156,64.7140456 434.825391,78.2571553 403.933733,101.111723 C431.95143,127.13547 452.67228,160.929405 462.573511,199.014271 L443.648315,199.014271 C433.952694,165.343455 415.000084,135.617013 389.691861,112.739646 C364.411053,135.617013 345.444735,165.343455 335.785666,199.014271 L316.833056,199.014271 C326.757132,160.929405 347.477983,127.13547 375.495679,101.111723 C344.585745,78.2571553 306.361145,64.7140456 264.921728,64.7140456 C162.254141,64.7140456 79.025316,147.773892 79.025316,250.258754 C79.025316,352.717167 162.254141,435.803005 264.921728,435.803005 C306.361145,435.803005 344.585745,422.260352 375.495679,399.407152 C349.131996,374.902787 329.242721,343.508308 318.729231,308.168544 L337.864605,308.168544 C348.030843,339.112042 366.078773,366.42398 389.691861,387.775581 C413.332363,366.42398 431.403138,339.112042 441.569377,308.168544 L460.700182,308.168544 C450.168415,343.508308 430.28371,374.902787 403.933733,399.407152 C434.825391,422.260352 473.064156,435.803005 514.483011,435.803005 C617.150598,435.803005 700.381251,352.717167 700.381251,250.258754 C700.381251,147.773892 617.150598,64.7140456 514.483011,64.7140456 L514.483011,64.7140456 Z"
       id="path14-path"
       stroke="#979797"
       fill="#393939"
       sketch:type="MSShapeGroup" />
    <path
       d="M189.730271,205.714046 L159.963068,205.714046 L141.36045,261.062501 L140.585532,205.714046 L112.999614,205.714046 L98.025316,295.140978 L115.976837,295.140978 L127.506494,226.819865 L129.116644,295.140978 L142.195681,295.140978 L166.70614,226.411748 L155.724317,295.140978 L174.896701,295.140978 L189.730271,205.714046 L189.730271,205.714046 Z"
       id="path13"
       fill="#393939"
       sketch:type="MSShapeGroup" />
    <path
       d="M239.137402,295.053862 L223.245629,295.053862 L223.614812,287.510305 C218.763803,293.468361 212.304929,296.318342 203.527238,296.318342 C193.114725,296.318342 186.025316,288.204788 186.025316,276.470162 C186.025316,258.737808 198.390204,248.429997 219.66163,248.429997 C221.841089,248.429997 224.63235,248.632916 227.484379,248.998169 C228.076991,246.577281 228.220004,245.562232 228.220004,244.259905 C228.220004,239.461449 224.896443,237.651597 215.93142,237.651597 C206.561118,237.528934 198.818785,239.86911 195.640065,240.925655 C195.845217,239.705407 198.310244,224.577252 198.310244,224.577252 C207.846405,221.771959 214.159068,220.714046 221.250305,220.714046 C237.713215,220.714046 246.433791,228.073837 246.414144,242.024608 C246.433791,245.765151 245.821532,250.380296 244.864764,256.463295 C243.194302,266.972657 239.628123,289.544507 239.137402,295.053862 L239.137402,295.053862 Z M225.666664,262.999044 C223.649865,262.793845 222.771685,262.714046 221.386792,262.714046 C210.506404,262.714046 205.025316,266.431333 205.025316,273.754188 C205.025316,278.290902 207.715143,281.176451 211.872106,281.176451 C219.696683,281.176451 225.318499,273.754188 225.666664,262.999044 L225.666664,262.999044 Z"
       id="path15"
       fill="#393939"
       sketch:type="MSShapeGroup" />
    <path
       d="M490.203273,203.714046 C464.79453,203.714046 447.025316,226.040113 447.025316,258.008236 C447.025316,281.755646 459.887321,296.601995 480.525928,296.601995 C485.82151,296.601995 490.404314,295.907511 497.454429,293.957212 L500.817283,273.601052 C494.479947,276.714599 489.266609,278.196589 484.533025,278.196589 C473.389,278.196589 466.663291,269.981348 466.663291,256.417262 C466.663291,236.715002 476.67418,222.906958 490.993727,222.906958 C496.312155,222.906958 501.283331,224.290908 508.127837,227.748277 L511.266806,208.350623 C508.456812,207.253494 498.573857,203.714046 490.203273,203.714046 L490.203273,203.714046 Z"
       id="path17"
       fill="#393939"
       sketch:type="MSShapeGroup" />
    <path
       d="M559.163903,295.053862 L543.295432,295.053862 L543.66096,287.510305 C538.790303,293.468361 532.311325,296.318342 523.547799,296.318342 C513.157675,296.318342 506.025316,288.204788 506.025316,276.470162 C506.025316,258.737808 518.434981,248.429997 539.685846,248.429997 C541.865305,248.429997 544.657023,248.632916 547.512708,248.998169 C548.097552,246.577281 548.243763,245.562232 548.243763,244.259905 C548.243763,239.461449 544.92203,237.651597 535.97574,237.651597 C526.586248,237.528934 518.864476,239.86911 515.684385,240.925655 C515.867149,239.705407 518.334461,224.577252 518.334461,224.577252 C527.88844,221.771959 534.202931,220.714046 541.253046,220.714046 C557.738345,220.714046 566.460749,228.073837 566.437903,242.024608 C566.479025,245.765151 565.84849,250.380296 564.88898,256.463295 C563.239536,266.972657 559.657365,289.544507 559.163903,295.053862 L559.163903,295.053862 Z M545.686768,262.999044 C543.690073,262.793845 542.79453,262.714046 541.387249,262.714046 C530.526508,262.714046 525.025316,266.431333 525.025316,273.754188 C525.025316,278.290902 527.716514,281.176451 531.915513,281.176451 C539.719529,281.176451 545.362362,273.754188 545.686768,262.999044 L545.686768,262.999044 Z"
       id="path19"
       fill="#393939"
       sketch:type="MSShapeGroup" />
    <path
       d="M333.490998,278.202051 C332.207082,278.653032 330.516516,278.893342 328.337057,278.893342 C323.77253,278.893342 321.757559,277.268625 321.757559,273.505282 C321.798681,271.189273 324.955926,253.986332 327.158231,240.178288 L336.995494,240.178288 L339.604448,222.689892 L329.803737,222.689892 L332.024318,211.714046 L312.972558,211.714046 C312.972558,211.714046 305.762068,254.515288 304.68239,261.285931 C303.4597,269.034232 301.912147,277.472 302.031858,280.683586 C302.031858,291.036085 307.37176,296.669928 317.170187,296.669928 C321.615917,296.669928 325.705258,295.934405 330.968857,294.310143 L333.490998,278.202051 L333.490998,278.202051 Z"
       id="path21"
       fill="#393939"
       sketch:type="MSShapeGroup" />
    <path
       d="M392.06275,293.388561 C385.501529,295.383548 379.182469,296.318342 372.50245,296.318342 C351.146496,296.27411 340.025316,285.153712 340.025316,263.864126 C340.025316,239.014116 354.184945,220.714046 373.397993,220.714046 C389.106545,220.714046 399.153987,230.941601 399.153987,247.046046 C399.153987,252.373459 398.441208,257.5586 396.787196,264.942103 L358.849992,264.942103 C357.566076,275.451465 364.332907,279.845452 375.417534,279.845452 C382.239194,279.845452 388.37549,278.461501 395.219996,275.290954 L392.06275,293.388561 L392.06275,293.388561 Z M382.070572,250.730935 C382.193938,249.226145 384.085544,237.714046 373.206526,237.714046 C367.134197,237.714046 362.77528,242.371599 361.025316,250.730935 L382.070572,250.730935 L382.070572,250.730935 Z"
       id="path23"
       fill="#393939"
       sketch:type="MSShapeGroup" />
    <path
       d="M254.319878,245.318274 C254.319878,254.53078 258.760582,260.85409 268.907174,265.632938 C276.670982,269.291858 277.872197,270.347947 277.872197,273.666693 C277.872197,278.176503 274.44903,280.210705 266.849253,280.210705 C261.145193,280.210705 255.806662,279.355711 249.672193,277.366196 C249.672193,277.366196 247.148682,293.388561 247.025316,294.1633 C251.407079,295.09855 255.276647,295.989112 266.992266,296.318342 C287.222852,296.318342 296.555687,288.609257 296.555687,272.016896 C296.555687,261.994083 292.662818,256.178297 283.044414,251.762423 C275.020167,248.062919 274.083046,247.248965 274.083046,243.854067 C274.083046,239.908326 277.281413,237.915163 283.49447,237.915163 C287.242499,237.915163 292.396896,238.32328 297.246078,239.014116 L299.978854,222.137212 C295.006307,221.363841 287.488773,220.714046 283.10701,220.714046 C261.653734,220.714046 254.238091,231.876851 254.319878,245.318274 L254.319878,245.318274 Z"
       id="path25"
       fill="#393939"
       sketch:type="MSShapeGroup" />
    <path
       d="M667.089388,295.140978 L648.940939,295.140978 L649.854758,288.372159 C644.577452,293.965418 639.18135,296.405457 632.172356,296.405457 C618.232044,296.405457 609.025316,284.426873 609.025316,266.249466 C609.025316,242.02782 623.303741,221.654331 640.213965,221.654331 C647.634177,221.654331 653.295287,224.664367 658.53604,231.557673 L662.771592,205.714046 L681.683081,205.714046 L667.089388,295.140978 L667.089388,295.140978 Z M638.848872,278.473787 C647.772317,278.473787 654.068531,268.365247 654.068531,253.968967 C654.068531,244.717244 650.504636,239.714046 643.897724,239.714046 C635.198165,239.714046 629.025316,249.820762 629.025316,264.116723 C629.025316,273.652075 632.328772,278.473787 638.848872,278.473787 Z"
       id="path27"
       fill="#393939"
       sketch:type="MSShapeGroup" />
    <path
       d="M579.886057,222.49938 C577.482713,244.990974 573.224315,267.783982 569.902582,290.316616 L569.025316,295.214936 L588.178966,295.214936 C595.046318,250.746112 596.714038,242.062562 607.451413,243.160147 C609.160255,234.029263 612.340346,226.081692 614.743691,222.055695 C606.702082,220.384922 602.215229,224.9417 596.371356,233.543171 C596.837403,229.800804 597.673548,226.200707 597.490784,222.49938 L579.886057,222.49938 L579.886057,222.49938 Z"
       id="path29"
       fill="#393939"
       sketch:type="MSShapeGroup" />
    <path
       d="M411.908903,222.49938 C409.500989,244.990974 405.224315,267.783982 401.902582,290.316616 L401.025316,295.214936 L420.197243,295.214936 C427.064594,250.746112 428.714038,242.062562 439.451413,243.160147 C441.183101,234.029263 444.381468,226.081692 446.74826,222.055695 C438.738634,220.384922 434.219799,224.9417 428.366787,233.543171 C428.837403,229.800804 429.668979,226.200707 429.509061,222.49938 L411.908903,222.49938 L411.908903,222.49938 Z"
       id="path31"
       fill="#393939"
       sketch:type="MSShapeGroup" />
    <g
       id="path14-path-+-path14-path"
       sketch:type="MSLayerGroup"
       transform="translate(691.000000, 357.000000)"
       fill="#393939" />
    <g
       id="path14-path-+-path14-path-copy"
       sketch:type="MSLayerGroup"
       transform="translate(673.000000, 288.000000)"
       fill="#393939" />
  </g>
</svg>

<svg xmlns="http://www.w3.org/2000/svg" width="780" height="501" viewBox="0 0 780 501"><title>jcb copy</title><g fill="none" fill-rule="evenodd"><rect stroke="#393939" stroke-width="30" x="15" y="15" width="750" height="471" rx="40"/><path d="M718.975 250.48c0 112.363-91.606 203.806-204.198 203.806-46.961 0-90.253-15.942-124.79-42.602-34.516 26.66-77.808 42.602-124.771 42.602-112.589 0-204.19-91.443-204.19-203.806 0-112.366 91.601-203.766 204.19-203.766 46.963 0 90.255 15.882 124.77 42.581 34.538-26.699 77.83-42.581 124.791-42.581 112.592 0 204.198 91.4 204.198 203.766zM514.483 64.714c-41.419 0-79.658 13.543-110.55 36.398 28.018 26.023 48.74 59.817 58.64 97.902h-18.925c-9.695-33.67-28.648-63.397-53.956-86.274-25.28 22.877-44.247 52.603-53.906 86.274h-18.953c9.924-38.085 30.645-71.879 58.663-97.902-30.91-22.855-69.135-36.398-110.574-36.398-102.668 0-185.897 83.06-185.897 185.545 0 102.458 83.23 185.544 185.897 185.544 41.44 0 79.664-13.543 110.574-36.396-26.364-24.504-46.253-55.899-56.767-91.238h19.136c10.166 30.943 28.214 58.255 51.827 79.607 23.64-21.352 41.711-48.664 51.877-79.607H460.7c-10.532 35.34-30.416 66.734-56.766 91.238 30.891 22.853 69.13 36.396 110.549 36.396 102.668 0 185.898-83.086 185.898-185.544 0-102.485-83.23-185.545-185.898-185.545z" stroke="#979797" fill="#393939"/><path d="M189.73 205.714h-29.767l-18.603 55.349-.774-55.349H113l-14.975 89.427h17.952l11.53-68.321 1.61 68.321h13.079l24.51-68.73-10.982 68.73h19.173l14.833-89.427zM239.137 295.054h-15.891l.369-7.544c-4.851 5.958-11.31 8.808-20.088 8.808-10.412 0-17.502-8.113-17.502-19.848 0-17.732 12.365-28.04 33.637-28.04 2.18 0 4.97.203 7.822.568.593-2.42.736-3.436.736-4.738 0-4.799-3.324-6.608-12.289-6.608-9.37-.123-17.112 2.217-20.29 3.274.204-1.22 2.67-16.349 2.67-16.349 9.535-2.805 15.848-3.863 22.94-3.863 16.462 0 25.183 7.36 25.163 21.31.02 3.741-.592 8.356-1.55 14.44-1.67 10.509-5.236 33.08-5.727 38.59zm-13.47-32.055c-2.017-.205-2.895-.285-4.28-.285-10.88 0-16.362 3.717-16.362 11.04 0 4.537 2.69 7.422 6.847 7.422 7.825 0 13.446-7.422 13.795-18.177zM490.203 203.714c-25.408 0-43.178 22.326-43.178 54.294 0 23.748 12.862 38.594 33.5 38.594 5.297 0 9.88-.694 16.93-2.645l3.362-20.356c-6.337 3.114-11.55 4.596-16.284 4.596-11.144 0-17.87-8.216-17.87-21.78 0-19.702 10.011-33.51 24.33-33.51 5.32 0 10.29 1.384 17.135 4.841l3.139-19.397c-2.81-1.098-12.693-4.637-21.064-4.637zM559.164 295.054h-15.869l.366-7.544c-4.87 5.958-11.35 8.808-20.113 8.808-10.39 0-17.523-8.113-17.523-19.848 0-17.732 12.41-28.04 33.66-28.04 2.18 0 4.972.203 7.828.568.585-2.42.73-3.436.73-4.738 0-4.799-3.321-6.608-12.267-6.608-9.39-.123-17.112 2.217-20.292 3.274.183-1.22 2.65-16.349 2.65-16.349 9.554-2.805 15.869-3.863 22.919-3.863 16.485 0 25.208 7.36 25.185 21.31.041 3.741-.59 8.356-1.549 14.44-1.65 10.509-5.232 33.08-5.725 38.59zm-13.477-32.055c-1.997-.205-2.892-.285-4.3-.285-10.86 0-16.362 3.717-16.362 11.04 0 4.537 2.692 7.422 6.89 7.422 7.805 0 13.447-7.422 13.772-18.177zM333.491 278.202c-1.284.451-2.974.691-5.154.691-4.564 0-6.58-1.624-6.58-5.388.042-2.316 3.199-19.519 5.401-33.327h9.837l2.61-17.488h-9.801l2.22-10.976h-19.051s-7.21 42.801-8.29 49.572c-1.223 7.748-2.77 16.186-2.651 19.398 0 10.352 5.34 15.986 15.138 15.986 4.446 0 8.535-.736 13.799-2.36l2.522-16.108zM392.063 293.389c-6.561 1.995-12.88 2.93-19.56 2.93-21.357-.045-32.478-11.165-32.478-32.455 0-24.85 14.16-43.15 33.373-43.15 15.709 0 25.756 10.228 25.756 26.332 0 5.327-.713 10.513-2.367 17.896H358.85c-1.284 10.51 5.483 14.903 16.568 14.903 6.821 0 12.957-1.383 19.802-4.554l-3.157 18.098zm-9.992-42.658c.123-1.505 2.015-13.017-8.864-13.017-6.073 0-10.432 4.658-12.182 13.017h21.046zM254.32 245.318c0 9.213 4.44 15.536 14.587 20.315 7.764 3.659 8.965 4.715 8.965 8.034 0 4.51-3.423 6.544-11.023 6.544-5.704 0-11.042-.855-17.177-2.845 0 0-2.523 16.023-2.647 16.797 4.382.936 8.252 1.826 19.967 2.155 20.23 0 29.564-7.709 29.564-24.301 0-10.023-3.893-15.839-13.512-20.255-8.024-3.7-8.961-4.513-8.961-7.908 0-3.946 3.198-5.939 9.411-5.939 3.748 0 8.903.408 13.752 1.1l2.733-16.878c-4.973-.773-12.49-1.423-16.872-1.423-21.453 0-28.869 11.163-28.787 24.604zM667.09 295.141h-18.15l.915-6.769c-5.278 5.593-10.674 8.033-17.683 8.033-13.94 0-23.147-11.978-23.147-30.156 0-24.221 14.279-44.595 31.189-44.595 7.42 0 13.081 3.01 18.322 9.904l4.236-25.844h18.911l-14.594 89.427zm-28.241-16.667c8.923 0 15.22-10.109 15.22-24.505 0-9.252-3.564-14.255-10.171-14.255-8.7 0-14.873 10.107-14.873 24.403 0 9.535 3.304 14.357 9.824 14.357zM579.886 222.5c-2.403 22.491-6.662 45.284-9.983 67.817l-.878 4.898h19.154c6.867-44.469 8.535-53.152 19.272-52.055 1.71-9.13 4.89-17.078 7.293-21.104-8.042-1.671-12.529 2.886-18.373 11.487.466-3.742 1.303-7.342 1.12-11.044h-17.605zM411.909 222.5c-2.408 22.491-6.685 45.284-10.006 67.817l-.878 4.898h19.172c6.868-44.469 8.517-53.152 19.254-52.055 1.732-9.13 4.93-17.078 7.297-21.104-8.01-1.671-12.528 2.886-18.381 11.487.47-3.742 1.302-7.342 1.142-11.044h-17.6z" fill="#393939"/></g></svg>
